X: 10
T:Amores yo tuve trece
T:Que no la llames
M:6/8
L:1/4
Q:1/8=92
C:Tradicional Leones
S:Miguel Manzano. Cancionero Leones
R:Jota
K:Eb
G/2|c c/2 B/2G/2c/2|c (B/2 B) c/2|!
d d/2 c/2B/2d/2|d (c/2 c) G/2|c c/2 B/2G/2c/2|!
c (B/2 B) c/2|d d/2 c/2B/2d/2|d c/2 G/2c/2c/2|!
c B/2 G/2B/2B/2|(B/2A/2)G/2-G G/2|c c/2 B/2G/2c/2|!
c (B/2 B) c/2|d d/2 c/2B/2d/2|d c/2 G/2c/2c/2|!
c B/2 =A/2B/2B/2|(B/2A/2)(G/2 G3/2)-|G3/2 z z/2||!
